!!!OTL: 175b. Der Tannenbaum.
!!!ARE: Europa, Mitteleuropa, Deutschland, Schlesien
!!!SCT: E0175A
!!!TXL: @@DE
!!!YEM: Copyright 1995, estate of Helmut Schaffrath.
**kern	**text
*ICvox	*
*M2/4	*
*k[f#]	*
*G:	*
!LO:TX:a:t=Aus Schleſten. Hoffmann Nr. 52.	!
{8d	O
=1	=1
8g	Tan-
8g	-nen-
8g	-baum,
8d	o
=2	=2
8g	Tan-
8g	-nen-
8g}	-baum,
{8d	du
=3	=3
8g	ed-
8g	-les
8g	grü-
8b	-nes
=4	=4
4a	Reis!
8r}	.
{8g	Du
=5	=5
8b	grü-
8a	-neſt
8b	uns
8b	den
=6	=6
(8ddL	Win-
8ccJ)	.
8cc}	-ter,
{16a	wie
16a	die
=7	=7
16ddL	lie-
16ccJ	.
8b	-be
16aL	Som-
16gJ	.
8a	-mer-
=8	=8
4g	-ʒeit.
8r}	.
{8g	Du
=9	=9
8b	grü-
8a	-neſt
8b	uns
8b	den
=10	=10
(8ddL	Win-
8ccJ)	.
8cc}	-ter,
{16a	wie
16a	die
=11	=11
16ddL	lie-
16ccJ	.
8b	-be
16aL	Som-
16gJ	.
8a	-mer-
=12	=12
4g	-ʒeit.
8r}	.
==	==
!!!AGN: erzaehlendes Volks - Lied, Sage, Pflanzen - Maerchen
!!!ONB: ESAC (Essen Associative Code) Database: ERK1
!!!AMT: simple duple
!!!AIN: vox
!!!EED: Helmut Schaffrath
!!!EEV: 1.0
!!!GTL: Thiersage und Pflanzenmaerchen
!!!URL-scan: https://rosdok.uni-rostock.de/mcrviewer/recordIdentifier/rosdok_ppn745146120/iview2/phys_0609.iview2?x=-128.7727644188933&y=199.48767855856568&scale=0.5870222003877484&rotation=0&layout=singlePageLayout
!!!ENC: Anna Maria Matuszewska
!!!EEV: 2024/04/12
*-	*-
